chess-client/components/Chess/_/images/blackPawn.svg

<svg viewBox="0 0 160 160" xmlns="http://www.w3.org/2000/svg"><path d="M61.02 46.01c3.79-6.68 11.3-11.03 18.99-10.94 7.66-.08 15.14 4.24 18.94 10.89 4.18 7.03 3.98 16.49-.76 23.2-.67 1.24-1.94 2.31-1.89 3.81-.09 7.01.01 14.01-.03 21.02 5.24.02 10.49 0 15.73.01v16h-8.19c3.42 7.34 6.87 14.67 10.32 22H128v16H32v-16h13.87c3.45-7.33 6.9-14.66 10.32-21.99-2.73-.01-5.46-.01-8.19-.01V94c5.24-.01 10.49.01 15.73-.01-.05-7.02.06-14.04-.02-21.06.02-1.49-1.24-2.55-1.9-3.78-4.73-6.69-4.94-16.12-.79-23.14m14.44-6.38c-6.98 1.74-12.52 8.06-13.27 15.22-.88 6.57 2.29 13.44 7.84 17.07 5.63 3.87 13.51 4.03 19.31.4 5.28-3.16 8.68-9.18 8.6-15.34.4-11.31-11.62-20.61-22.48-17.35m-7.77 35.65c.08 6.24.01 12.48.04 18.71 8.18.01 16.36.01 24.54 0 .03-6.23-.05-12.47.05-18.71-7.35 4.82-17.29 4.82-24.63 0M52 98v8h56v-8H52m8.48 12.12c-3.24 7.36-6.81 14.57-10.17 21.88h59.38c-3.46-7.35-6.85-14.73-10.38-22.03-12.95.15-25.89-.15-38.83.15M36 136v8h88v-8H36z"/><g fill="#0078d7"><path d="M75.46 39.63c10.86-3.26 22.88 6.04 22.48 17.35.08 6.16-3.32 12.18-8.6 15.34-5.8 3.63-13.68 3.47-19.31-.4-5.55-3.63-8.72-10.5-7.84-17.07.75-7.16 6.29-13.48 13.27-15.22z"/><path d="M67.69 75.28c7.34 4.82 17.28 4.82 24.63 0-.1 6.24-.02 12.48-.05 18.71-8.18.01-16.36.01-24.54 0-.03-6.23.04-12.47-.04-18.71zM52 98h56v8H52v-8zm8.48 12.12c12.94-.3 25.88 0 38.83-.15 3.53 7.3 6.92 14.68 10.38 22.03H50.31c3.36-7.31 6.93-14.52 10.17-21.88zM36 136h88v8H36v-8z"/></g></svg>

<?xml version="1.0" encoding="UTF-8" ?>
<!DOCTYPE svg PUBLIC "-//W3C//DTD SVG 1.1//EN" "http://www.w3.org/Graphics/SVG/1.1/DTD/svg11.dtd">
<svg width="160pt" height="160pt" viewBox="0 0 160 160" version="1.1" xmlns="http://www.w3.org/2000/svg">
<g id="#000000ff">
<path fill="#000000" opacity="1.00" d=" M 61.02 46.01 C 64.81 39.33 72.32 34.98 80.01 35.07 C 87.67 34.99 95.15 39.31 98.95 45.96 C 103.13 52.99 102.93 62.45 98.19 69.16 C 97.52 70.40 96.25 71.47 96.30 72.97 C 96.21 79.98 96.31 86.98 96.27 93.99 C 101.51 94.01 106.76 93.99 112.00 94.00 C 112.00 99.33 112.00 104.67 112.00 110.00 C 109.27 110.00 106.54 110.00 103.81 110.00 C 107.23 117.34 110.68 124.67 114.13 132.00 C 118.75 132.00 123.37 132.00 128.00 132.00 C 128.00 137.33 128.00 142.67 128.00 148.00 C 96.00 148.00 64.00 148.00 32.00 148.00 C 32.00 142.67 32.00 137.33 32.00 132.00 C 36.62 132.00 41.25 132.00 45.87 132.00 C 49.32 124.67 52.77 117.34 56.19 110.01 C 53.46 110.00 50.73 110.00 48.00 110.00 C 48.00 104.67 48.00 99.33 48.00 94.00 C 53.24 93.99 58.49 94.01 63.73 93.99 C 63.68 86.97 63.79 79.95 63.71 72.93 C 63.73 71.44 62.47 70.38 61.81 69.15 C 57.08 62.46 56.87 53.03 61.02 46.01 M 75.46 39.63 C 68.48 41.37 62.94 47.69 62.19 54.85 C 61.31 61.42 64.48 68.29 70.03 71.92 C 75.66 75.79 83.54 75.95 89.34 72.32 C 94.62 69.16 98.02 63.14 97.94 56.98 C 98.34 45.67 86.32 36.37 75.46 39.63 M 67.69 75.28 C 67.77 81.52 67.70 87.76 67.73 93.99 C 75.91 94.00 84.09 94.00 92.27 93.99 C 92.30 87.76 92.22 81.52 92.32 75.28 C 84.97 80.10 75.03 80.10 67.69 75.28 M 52.00 98.00 C 52.00 100.67 52.00 103.33 52.00 106.00 C 70.67 106.00 89.33 106.00 108.00 106.00 C 108.00 103.33 108.00 100.67 108.00 98.00 C 89.33 98.00 70.67 98.00 52.00 98.00 M 60.48 110.12 C 57.24 117.48 53.67 124.69 50.31 132.00 C 70.10 132.00 89.90 132.00 109.69 132.00 C 106.23 124.65 102.84 117.27 99.31 109.97 C 86.36 110.12 73.42 109.82 60.48 110.12 M 36.00 136.00 C 36.00 138.67 36.00 141.33 36.00 144.00 C 65.34 144.00 94.67 144.00 124.00 144.00 C 124.00 141.33 124.00 138.67 124.00 136.00 C 94.67 136.00 65.33 136.00 36.00 136.00 Z" />
</g>
<g id="#0078d7ff">
<path fill="#0078d7" opacity="1.00" d=" M 75.46 39.63 C 86.32 36.37 98.34 45.67 97.94 56.98 C 98.02 63.14 94.62 69.16 89.34 72.32 C 83.54 75.95 75.66 75.79 70.03 71.92 C 64.48 68.29 61.31 61.42 62.19 54.85 C 62.94 47.69 68.48 41.37 75.46 39.63 Z" />
<path fill="#0078d7" opacity="1.00" d=" M 67.69 75.28 C 75.03 80.10 84.97 80.10 92.32 75.28 C 92.22 81.52 92.30 87.76 92.27 93.99 C 84.09 94.00 75.91 94.00 67.73 93.99 C 67.70 87.76 67.77 81.52 67.69 75.28 Z" />
<path fill="#0078d7" opacity="1.00" d=" M 52.00 98.00 C 70.67 98.00 89.33 98.00 108.00 98.00 C 108.00 100.67 108.00 103.33 108.00 106.00 C 89.33 106.00 70.67 106.00 52.00 106.00 C 52.00 103.33 52.00 100.67 52.00 98.00 Z" />
<path fill="#0078d7" opacity="1.00" d=" M 60.48 110.12 C 73.42 109.82 86.36 110.12 99.31 109.97 C 102.84 117.27 106.23 124.65 109.69 132.00 C 89.90 132.00 70.10 132.00 50.31 132.00 C 53.67 124.69 57.24 117.48 60.48 110.12 Z" />
<path fill="#0078d7" opacity="1.00" d=" M 36.00 136.00 C 65.33 136.00 94.67 136.00 124.00 136.00 C 124.00 138.67 124.00 141.33 124.00 144.00 C 94.67 144.00 65.34 144.00 36.00 144.00 C 36.00 141.33 36.00 138.67 36.00 136.00 Z" />
</g>
</svg>
